Yaru++/mimetypes/scalable/image-svg+xml.svg

<svg height="256" viewBox="0 0 67.73 67.73" width="256" xmlns="http://www.w3.org/2000/svg" xmlns:xlink="http://www.w3.org/1999/xlink"><linearGradient id="a" gradientTransform="matrix(-.11988342 0 0 -.11987999 63.186066 64.761748)" gradientUnits="userSpaceOnUse" x1="529.65515" x2="-35.310345" y1="401.58368" y2="119.09284"><stop offset="0" stop-color="#f2f2f2"/><stop offset="1" stop-color="#f9f9f9"/></linearGradient><linearGradient id="b" gradientUnits="userSpaceOnUse" x1="88" x2="488" y1="88" y2="488"><stop offset="0" stop-opacity=".588235"/><stop offset=".88" stop-opacity="0"/><stop offset="1"/></linearGradient><filter id="c" color-interpolation-filters="sRGB" height="1.087725" width="1.105998" x="-.052999" y="-.043863"><feGaussianBlur stdDeviation="8.4801079"/></filter><filter id="d" color-interpolation-filters="sRGB" height="1.021931" width="1.0265" x="-.01325" y="-.010966"><feGaussianBlur stdDeviation="2.120027"/></filter><path d="m189.84323 74c-70.59344 0-78.18921 7.250835-77.84323 77.98706v146.01294 146.01294c-.34598 70.73623 7.24979 77.98706 77.84323 77.98706h228.31354c70.59344 0 75.90613-7.27652 77.84323-77.98706v-146.01294-146.01294c0-70.737067-7.24979-77.98706-77.84323-77.98706z" filter="url(#d)" opacity=".1" transform="matrix(0 -.13228516 .13228516 0 -5.866787 74.031657)"/><path d="m189.84323 74c-70.59344 0-78.18921 7.250835-77.84323 77.98706v146.01294 146.01294c-.34598 70.73623 7.24979 77.98706 77.84323 77.98706h228.31354c70.59344 0 77.84323-7.24999 77.84323-77.98706v-146.01294-146.01294c0-70.737067-7.24979-77.98706-77.84323-77.98706z" fill="url(#b)" filter="url(#c)" opacity=".3" transform="matrix(0 .13228516 .13228516 0 -5.866787 -6.39629)"/><path d="m3.9223154 48.653644c0 9.338467.9591779 10.343274 10.3165306 10.297506h19.315345 19.315345c9.357354.04577 10.31653-.959039 10.31653-10.297506v-30.202488c0-9.3384628-.962575-10.5537538-10.31653-10.2975038h-19.315345-19.315345c-9.3574641 0-10.3165306.959041-10.3165306 10.2975038z" fill="none" opacity=".2" stroke="#000" stroke-width="1.058281"/><path d="m3.9223148 48.653644c0 9.338467.9591785 10.343274 10.3165312 10.297506h19.315345 19.315345c9.357354.04577 10.31653-.959039 10.31653-10.297506v-30.202488c0-9.3384628-.959067-10.2975038-10.31653-10.2975038h-19.315345-19.315345c-9.3574638 0-10.3165312.959041-10.3165312 10.2975038z" fill="url(#a)"/><path d="m3.9225125 48.126184v.52914c0 9.338465.9587112 10.297056 10.3161755 10.297056h19.315702 19.315183c9.357463 0 10.316692-.958591 10.316692-10.297056v-.52914c0 9.338464-.959229 10.297055-10.316692 10.297055h-19.315183-19.315702c-9.3574643 0-10.3161755-.958591-10.3161755-10.297055z" opacity=".2"/><path d="m14.238688 8.1548822c-9.357355-.045768-10.3161755.959106-10.3161755 10.2975728v.529141c0-9.3384668.9588205-10.3433408 10.3161755-10.2975728h19.315702 19.315183c9.357352-.04577 10.316692.959106 10.316692 10.2975728v-.529141c0-9.3384668-.95934-10.3433408-10.316692-10.2975728h-19.315183z" fill="#fff" opacity=".2"/><g enable-background="new" stroke-width="4" transform="matrix(.26457031 0 0 .26457031 -6.659784 -7.719724)"><path d="m113.55083 134.64325 76.85614 42.40822" fill="none" stroke="#f34f17"/><path d="m120 212c52 24 76-32 32-56s-20-80 32-56" fill="#8f76e4" fill-opacity=".25098" fill-rule="evenodd" stroke="#8c59d9"/><g stroke-dashoffset="1"><circle cx="108" cy="132" fill="none" r="6" stroke="#f34f17" stroke-linejoin="round"/><circle cx="196" cy="180" fill="none" r="6" stroke="#f34f17" stroke-linejoin="round"/><g fill="#fff" stroke="#8f76e4"><path d="m178 94h12v12h-12z"/><path d="m146 150h12v12h-12z"/><path d="m114 206h12v12h-12z"/></g></g></g><g fill="#fff"><path d="m3.9223148 33.553828h59.2637512v15.101176c0 9.338465-.962123 10.054627-10.316435 10.297574h-19.31544-19.315442c-9.3574644 0-10.3164342-.959109-10.3164342-10.297574z" opacity=".1"/><path d="m33.554191 8.1550802h19.31544c9.357355-.04577 10.316435.959108 10.316435 10.2975738v30.20235c0 9.338465-.962123 10.054627-10.316435 10.297574h-19.31544z" opacity=".1"/><path d="m47.311847 58.580656 15.874219-15.874219v5.948567c-.01384 8.994282-1.006076 9.925652-10.099733 9.925652z" opacity=".1"/></g></svg>

<?xml version="1.0" encoding="UTF-8" standalone="no"?>
<svg
   xmlns:dc="http://purl.org/dc/elements/1.1/"
   xmlns:cc="http://creativecommons.org/ns#"
   xmlns:rdf="http://www.w3.org/1999/02/22-rdf-syntax-ns#"
   xmlns:svg="http://www.w3.org/2000/svg"
   xmlns="http://www.w3.org/2000/svg"
   xmlns:xlink="http://www.w3.org/1999/xlink"
   xmlns:sodipodi="http://sodipodi.sourceforge.net/DTD/sodipodi-0.dtd"
   xmlns:inkscape="http://www.inkscape.org/namespaces/inkscape"
   height="256"
   viewBox="0 0 67.73 67.73"
   width="256"
   version="1.1"
   id="svg55"
   sodipodi:docname="image-svg+xml.svg"
   inkscape:version="0.92.5 (2060ec1f9f, 2020-04-08)">
  <metadata
     id="metadata61">
    <rdf:RDF>
      <cc:Work
         rdf:about="">
        <dc:format>image/svg+xml</dc:format>
        <dc:type
           rdf:resource="http://purl.org/dc/dcmitype/StillImage" />
      </cc:Work>
    </rdf:RDF>
  </metadata>
  <defs
     id="defs59">
    <linearGradient
       gradientUnits="userSpaceOnUse"
       y2="119.09284"
       x2="-35.310345"
       y1="401.58368"
       x1="529.65515"
       id="linearGradient4226"
       xlink:href="#linearGradient4338"
       inkscape:collect="always"
       gradientTransform="matrix(-0.11988342,0,0,-0.11987999,63.186066,64.761748)" />
    <linearGradient
       inkscape:collect="always"
       id="linearGradient4338">
      <stop
         style="stop-color:#f2f2f2;stop-opacity:1"
         offset="0"
         id="stop4340" />
      <stop
         style="stop-color:#f9f9f9;stop-opacity:1"
         offset="1"
         id="stop4342" />
    </linearGradient>
    <linearGradient
       inkscape:collect="always"
       xlink:href="#linearGradient4360"
       id="linearGradient4358"
       x1="88"
       y1="88"
       x2="488"
       y2="488"
       gradientUnits="userSpaceOnUse" />
    <linearGradient
       id="linearGradient4360"
       inkscape:collect="always">
      <stop
         id="stop4362"
         offset="0"
         style="stop-color:#000000;stop-opacity:0.58823532" />
      <stop
         style="stop-color:#000000;stop-opacity:0"
         offset="0.88"
         id="stop4364" />
      <stop
         id="stop4366"
         offset="1"
         style="stop-color:#000000;stop-opacity:1" />
    </linearGradient>
    <filter
       inkscape:collect="always"
       style="color-interpolation-filters:sRGB"
       id="filter4380"
       x="-0.052999184"
       width="1.1059984"
       y="-0.043862626"
       height="1.0877253">
      <feGaussianBlur
         inkscape:collect="always"
         stdDeviation="8.4801079"
         id="feGaussianBlur4382" />
    </filter>
    <filter
       inkscape:collect="always"
       style="color-interpolation-filters:sRGB"
       id="filter4346"
       x="-0.013249796"
       width="1.0264996"
       y="-0.010965657"
       height="1.0219313">
      <feGaussianBlur
         inkscape:collect="always"
         stdDeviation="2.120027"
         id="feGaussianBlur4348" />
    </filter>
  </defs>
  <sodipodi:namedview
     pagecolor="#ffffff"
     bordercolor="#666666"
     borderopacity="1"
     objecttolerance="10"
     gridtolerance="10"
     guidetolerance="10"
     inkscape:pageopacity="0"
     inkscape:pageshadow="2"
     inkscape:window-width="773"
     inkscape:window-height="480"
     id="namedview57"
     showgrid="false"
     inkscape:zoom="0.921875"
     inkscape:cx="128"
     inkscape:cy="128"
     inkscape:window-x="0"
     inkscape:window-y="27"
     inkscape:window-maximized="0"
     inkscape:current-layer="svg55" />
  <linearGradient
     id="a"
     gradientTransform="matrix(0 -.11988932 .11988589 0 .36278 292.5483)"
     gradientUnits="userSpaceOnUse"
     x1="529.655"
     x2="-35.31"
     y1="401.584"
     y2="119.093">
    <stop
       offset="0"
       stop-color="#f2f2f2"
       id="stop2" />
    <stop
       offset="1"
       stop-color="#f9f9f9"
       id="stop4" />
  </linearGradient>
  <linearGradient
     id="b"
     gradientUnits="userSpaceOnUse"
     x1="88"
     x2="488"
     y1="88"
     y2="488">
    <stop
       offset="0"
       stop-opacity=".588235"
       id="stop7" />
    <stop
       offset=".88"
       stop-opacity="0"
       id="stop9" />
    <stop
       offset="1"
       id="stop11" />
  </linearGradient>
  <filter
     id="c"
     color-interpolation-filters="sRGB"
     height="1.022"
     width="1.026"
     x="-.01"
     y="-.01">
    <feGaussianBlur
       stdDeviation="2.12"
       id="feGaussianBlur14" />
  </filter>
  <path
     style="color:#000000;display:inline;overflow:visible;visibility:visible;opacity:0.1;fill:#000000;fill-opacity:1;fill-rule:nonzero;stroke:none;stroke-width:2;marker:none;filter:url(#filter4346);enable-background:accumulate"
     d="M 189.84323,74 C 119.24979,74 111.65402,81.250835 112,151.98706 V 298 444.01294 C 111.65402,514.74917 119.24979,522 189.84323,522 H 418.15677 C 488.75021,522 494.0629,514.72348 496,444.01294 V 298 151.98706 C 496,81.249993 488.75021,74 418.15677,74 Z"
     id="rect4158-9"
     inkscape:connector-curvature="0"
     sodipodi:nodetypes="scccssscsss"
     transform="matrix(0,-0.13228516,0.13228516,0,-5.8667865,74.031657)" />
  <path
     sodipodi:nodetypes="scccssscsss"
     inkscape:connector-curvature="0"
     id="path4350"
     d="M 189.84323,74 C 119.24979,74 111.65402,81.250835 112,151.98706 V 298 444.01294 C 111.65402,514.74917 119.24979,522 189.84323,522 H 418.15677 C 488.75021,522 496,514.75001 496,444.01294 V 298 151.98706 C 496,81.249993 488.75021,74 418.15677,74 Z"
     style="color:#000000;display:inline;overflow:visible;visibility:visible;opacity:0.3;fill:url(#linearGradient4358);fill-opacity:1;fill-rule:nonzero;stroke:none;stroke-width:2;marker:none;filter:url(#filter4380);enable-background:accumulate"
     transform="matrix(0,0.13228516,0.13228516,0,-5.8667865,-6.3962895)" />
  <path
     sodipodi:nodetypes="scccssscsss"
     inkscape:connector-curvature="0"
     id="path1163"
     d="m 3.9223154,48.653644 c 0,9.338467 0.9591779,10.343274 10.3165306,10.297506 h 19.315345 19.315345 c 9.357354,0.04577 10.31653,-0.959039 10.31653,-10.297506 V 18.451156 c 0,-9.3384628 -0.962575,-10.5537538 -10.31653,-10.2975038 H 33.554191 14.238846 c -9.3574641,0 -10.3165306,0.959041 -10.3165306,10.2975038 z"
     style="color:#000000;display:inline;overflow:visible;visibility:visible;opacity:0.2;fill:none;fill-opacity:1;fill-rule:nonzero;stroke:#000000;stroke-width:1.0582813;stroke-miterlimit:4;stroke-dasharray:none;stroke-opacity:1;marker:none;enable-background:accumulate" />
  <path
     style="color:#000000;display:inline;overflow:visible;visibility:visible;fill:url(#linearGradient4226);fill-opacity:1;fill-rule:nonzero;stroke:none;stroke-width:0.26457033;marker:none;enable-background:accumulate"
     d="m 3.9223148,48.653644 c 0,9.338467 0.9591785,10.343274 10.3165312,10.297506 h 19.315345 19.315345 c 9.357354,0.04577 10.31653,-0.959039 10.31653,-10.297506 V 18.451156 c 0,-9.3384628 -0.959067,-10.2975038 -10.31653,-10.2975038 H 33.554191 14.238846 c -9.3574638,0 -10.3165312,0.959041 -10.3165312,10.2975038 z"
     id="rect4158"
     inkscape:connector-curvature="0"
     sodipodi:nodetypes="scccssscsss" />
  <path
     style="color:#000000;display:inline;overflow:visible;visibility:visible;opacity:0.2;fill:#000000;fill-opacity:1;fill-rule:nonzero;stroke:none;stroke-width:0.26457033;marker:none;enable-background:accumulate"
     d="m 3.9225125,48.126184 v 0.52914 c 0,9.338465 0.9587112,10.297056 10.3161755,10.297056 H 33.55439 52.869573 c 9.357463,0 10.316692,-0.958591 10.316692,-10.297056 v -0.52914 c 0,9.338464 -0.959229,10.297055 -10.316692,10.297055 H 33.55439 14.238688 c -9.3574643,0 -10.3161755,-0.958591 -10.3161755,-10.297055 z"
     id="path1056"
     inkscape:connector-curvature="0"
     sodipodi:nodetypes="csscsscscsc" />
  <path
     style="color:#000000;display:inline;overflow:visible;visibility:visible;opacity:0.2;fill:#ffffff;fill-opacity:1;fill-rule:nonzero;stroke:none;stroke-width:0.26457033;marker:none;enable-background:accumulate"
     d="M 14.238688,8.1548822 C 4.881333,8.1091142 3.9225125,9.1139882 3.9225125,18.452455 v 0.529141 c 0,-9.3384668 0.9588205,-10.3433408 10.3161755,-10.2975728 H 33.55439 52.869573 c 9.357352,-0.04577 10.316692,0.959106 10.316692,10.2975728 v -0.529141 c 0,-9.3384668 -0.95934,-10.3433408 -10.316692,-10.2975728 H 33.55439 Z"
     id="path923"
     inkscape:connector-curvature="0" />
  <g
     transform="matrix(0.26457031,0,0,0.26457031,-6.6597835,-7.7197235)"
     style="display:inline;enable-background:new"
     id="g1100">
    <path
       sodipodi:nodetypes="cc"
       inkscape:connector-curvature="0"
       id="path1063"
       d="m 113.55083,134.64325 76.85614,42.40822"
       style="fill:none;fill-rule:evenodd;stroke:#f34f17;stroke-width:4;stroke-linecap:butt;stroke-linejoin:miter;stroke-miterlimit:4;stroke-dasharray:none;stroke-opacity:1" />
    <path
       sodipodi:nodetypes="csc"
       inkscape:connector-curvature="0"
       id="path1057"
       d="m 120,212 c 52,24 76,-32 32,-56 -44,-24 -20,-80 32,-56"
       style="fill:#8f76e4;fill-opacity:0.25098039;fill-rule:evenodd;stroke:#8c59d9;stroke-width:4;stroke-linecap:butt;stroke-linejoin:miter;stroke-miterlimit:4;stroke-dasharray:none;stroke-opacity:1" />
    <circle
       r="6"
       cy="132"
       cx="108"
       id="path1059"
       style="opacity:1;fill:none;fill-opacity:1;stroke:#f34f17;stroke-width:4;stroke-linecap:butt;stroke-linejoin:round;stroke-miterlimit:4;stroke-dasharray:none;stroke-dashoffset:1;stroke-opacity:1" />
    <circle
       style="opacity:1;fill:none;fill-opacity:1;stroke:#f34f17;stroke-width:4;stroke-linecap:butt;stroke-linejoin:round;stroke-miterlimit:4;stroke-dasharray:none;stroke-dashoffset:1;stroke-opacity:1"
       id="circle1061"
       cx="196"
       cy="180"
       r="6" />
    <rect
       y="94"
       x="178"
       height="12"
       width="12"
       id="rect1051"
       style="opacity:1;fill:#ffffff;fill-opacity:1;stroke:#8f76e4;stroke-width:4;stroke-linecap:butt;stroke-linejoin:miter;stroke-miterlimit:4;stroke-dasharray:none;stroke-dashoffset:1;stroke-opacity:1" />
    <rect
       style="opacity:1;fill:#ffffff;fill-opacity:1;stroke:#8f76e4;stroke-width:4;stroke-linecap:butt;stroke-linejoin:miter;stroke-miterlimit:4;stroke-dasharray:none;stroke-dashoffset:1;stroke-opacity:1"
       id="rect1053"
       width="12"
       height="12"
       x="146"
       y="150" />
    <rect
       y="206"
       x="114"
       height="12"
       width="12"
       id="rect1055"
       style="opacity:1;fill:#ffffff;fill-opacity:1;stroke:#8f76e4;stroke-width:4;stroke-linecap:butt;stroke-linejoin:miter;stroke-miterlimit:4;stroke-dasharray:none;stroke-dashoffset:1;stroke-opacity:1" />
  </g>
  <path
     style="color:#000000;display:inline;overflow:visible;visibility:visible;opacity:0.1;fill:#ffffff;fill-opacity:1;fill-rule:nonzero;stroke:none;stroke-width:0.26457033;marker:none;enable-background:accumulate"
     d="M 3.9223148,33.553828 H 63.186066 v 15.101176 c 0,9.338465 -0.962123,10.054627 -10.316435,10.297574 H 33.554191 14.238749 c -9.3574644,0 -10.3164342,-0.959109 -10.3164342,-10.297574 z"
     id="path4231"
     inkscape:connector-curvature="0"
     sodipodi:nodetypes="ccsscssc" />
  <path
     inkscape:connector-curvature="0"
     style="color:#000000;display:inline;overflow:visible;visibility:visible;opacity:0.1;fill:#ffffff;fill-opacity:1;fill-rule:nonzero;stroke:none;stroke-width:0.26457033;marker:none;enable-background:accumulate"
     d="m 33.554191,8.1550802 h 19.31544 c 9.357355,-0.04577 10.316435,0.959108 10.316435,10.2975738 v 30.20235 c 0,9.338465 -0.962123,10.054627 -10.316435,10.297574 h -19.31544 z"
     id="path4255"
     sodipodi:nodetypes="ccssscc" />
  <path
     style="color:#000000;display:inline;overflow:visible;visibility:visible;opacity:0.1;fill:#ffffff;fill-opacity:1;fill-rule:nonzero;stroke:none;stroke-width:2.11656237;stroke-linecap:butt;stroke-linejoin:miter;stroke-miterlimit:4;stroke-dasharray:none;stroke-dashoffset:0;stroke-opacity:1;marker:none;enable-background:accumulate"
     d="M 47.311847,58.580656 63.186066,42.706437 v 5.948567 c -0.01384,8.994282 -1.006076,9.925652 -10.099733,9.925652 z"
     id="path4254"
     inkscape:connector-curvature="0"
     sodipodi:nodetypes="cccsc" />
</svg>
